; generated by PrusaSlicer 2.9.4 on 2025-12-20 at 17:58:09 UTC

; 0.3HC20_333

; external perimeters extrusion width = 0.65mm
; perimeters extrusion width = 0.65mm
; infill extrusion width = 0.65mm
; solid infill extrusion width = 0.60mm
; top infill extrusion width = 0.60mm
; first layer extrusion width = 0.65mm

;TYPE:Custom
G90 ; use absolute coordinates
M83 ; extruder relative mode
M104 S150 ; set temporary nozzle temp to prevent oozing during homing and auto bed leveling
M140 S90 ; set final bed temp
M190 S90 ; wait for bed temp to stabilize
G28 ; home all axis
M104 S255 ; set final nozzle temp
M109 S255 ; wait for nozzle temp to stabilize
G1 Z0.28 F240
G92 E0
G21 ; set units to millimeters
G90 ; use absolute coordinates
M83 ; use relative distances for extrusion
; Filament gcode
M107
;LAYER_CHANGE
;Z:0.3
;HEIGHT:0.3
G1 E-2 F3600
G1 Z.3 F7200
G1 X93.88 Y80.202
G1 E2.1 F2400
;TYPE:Skirt/Brim
;WIDTH:0.65
G1 F3415.187
G1 X94.583 Y79.421 E.07675
G1 X95.434 Y78.655 E.08363
G1 X96.279 Y78.04 E.07634
G1 X97.269 Y77.468 E.08351
G1 X98.225 Y77.042 E.07645
G1 X99.611 Y76.614 E.10595
G1 X100.752 Y76.412 E.08464
G1 X101.785 Y76.34 E.07564
G1 X258.521 Y76.35 E11.44826
G1 X259.658 Y76.47 E.08351
G1 X260.673 Y76.685 E.07578
G1 X262.446 Y77.329 E.13778
G1 X263.971 Y78.209 E.1286
G1 X265.417 Y79.421 E.13781
G1 X266.555 Y80.777 E.1293
G1 X267.161 Y81.747 E.08354
G1 X267.616 Y82.679 E.07575
G1 X268.2 Y84.473 E.1378
G1 X268.447 Y86.226 E.12931
G1 X268.464 Y273.2 E13.6569
G1 X268.338 Y274.81 E.11796
G1 X267.884 Y276.632 E.13715
G1 X267.164 Y278.249 E.12929
G1 X266.117 Y279.801 E.13674
G1 X265.417 Y280.579 E.07644
G1 X264.563 Y281.348 E.08394
G1 X263.721 Y281.96 E.07603
G1 X262.454 Y282.667 E.10598
G1 X261.381 Y283.101 E.08454
G1 X260.389 Y283.386 E.07539
G1 X259.248 Y283.588 E.08464
G1 X258.209 Y283.66 E.07607
G1 X101.791 Y283.66 E11.42503
G1 X100.03 Y283.475 E.12933
G1 X98.619 Y283.101 E.10662
G1 X96.904 Y282.338 E.1371
G1 X95.437 Y281.348 E.12927
G1 X94.373 Y280.362 E.10596
G1 X93.631 Y279.478 E.0843
G1 X93.051 Y278.619 E.07571
G1 X92.506 Y277.597 E.0846
G1 X92.12 Y276.64 E.07537
G1 X91.801 Y275.533 E.08415
G1 X91.619 Y274.502 E.07647
G1 X91.536 Y273.2 E.09529
G1 X91.536 Y86.8 E13.61497
G1 X91.661 Y85.199 E.1173
G1 X92.113 Y83.377 E.13712
G1 X92.832 Y81.759 E.12932
G1 X93.847 Y80.252 E.13271
G1 X94.331 Y80.578 F7200
G1 F3415.187
G1 X94.342 Y80.562 E.00142
G1 X94.99 Y79.842 E.07075
G1 X95.81 Y79.103 E.08063
G1 X96.59 Y78.537 E.07039
G1 X97.544 Y77.985 E.08051
G1 X98.426 Y77.592 E.07053
G1 X99.734 Y77.187 E.10001
G1 X100.833 Y76.992 E.08153
G1 X101.785 Y76.926 E.0697
G1 X258.48 Y76.935 E11.44527
G1 X259.576 Y77.05 E.08049
G1 X260.512 Y77.248 E.06988
G1 X262.208 Y77.864 E.1318
G1 X263.627 Y78.683 E.11967
G1 X265.01 Y79.842 E.1318
G1 X266.069 Y81.105 E.12039
G1 X266.654 Y82.039 E.0805
G1 X267.074 Y82.899 E.06991
G1 X267.632 Y84.614 E.13173
G1 X267.861 Y86.246 E.12037
G1 X267.878 Y273.2 E13.65543
G1 X267.761 Y274.709 E.11055
G1 X267.327 Y276.451 E.13113
G1 X266.657 Y277.956 E.12033
G1 X265.656 Y279.44 E.13075
G1 X265.01 Y280.158 E.07055
G1 X264.187 Y280.899 E.08089
G1 X263.41 Y281.463 E.07013
G1 X262.216 Y282.132 E.09997
G1 X261.181 Y282.551 E.08156
G1 X260.266 Y282.813 E.06952
G1 X259.167 Y283.008 E.08153
G1 X258.209 Y283.075 E.07014
G1 X101.791 Y283.075 E11.42503
G1 X100.152 Y282.903 E.12037
G1 X98.819 Y282.551 E.1007
G1 X97.179 Y281.821 E.13112
G1 X95.813 Y280.899 E.12038
G1 X94.808 Y279.969 E.10001
G1 X94.092 Y279.117 E.08129
G1 X93.558 Y278.326 E.06971
G1 X93.033 Y277.341 E.08153
G1 X92.676 Y276.459 E.0695
G1 X92.369 Y275.391 E.08117
G1 X92.201 Y274.44 E.07054
G1 X92.122 Y273.2 E.09076
G1 X92.122 Y86.8 E13.61497
G1 X92.238 Y85.3 E.10989
G1 X92.671 Y83.558 E.13111
G1 X93.339 Y82.052 E.12034
G1 X94.298 Y80.628 E.1254
G1 X94.782 Y80.954 F7200
G1 F3415.187
G1 X94.804 Y80.923 E.00278
G1 X95.397 Y80.263 E.06481
G1 X96.187 Y79.551 E.07768
G1 X96.9 Y79.033 E.06437
G1 X97.819 Y78.502 E.07752
G1 X98.626 Y78.143 E.06451
G1 X99.856 Y77.759 E.09412
G1 X100.915 Y77.572 E.07855
G1 X101.785 Y77.511 E.0637
G1 X258.439 Y77.519 E11.44227
G1 X260.351 Y77.811 E.14127
G1 X261.969 Y78.399 E.12574
G1 X262.745 Y78.811 E.06417
G1 X263.627 Y79.406 E.07771
G1 X264.763 Y80.429 E.11166
G1 X265.818 Y81.779 E.12515
G1 X266.253 Y82.532 E.06352
G1 X266.69 Y83.512 E.07838
G1 X267.112 Y84.981 E.11164
G1 X267.291 Y86.685 E.12515
G1 X267.293 Y273.2 E13.62337
G1 X267.184 Y274.607 E.10308
G1 X266.77 Y276.27 E.12518
G1 X266.149 Y277.663 E.1114
G1 X265.194 Y279.08 E.12481
G1 X264.603 Y279.737 E.06455
G1 X263.811 Y280.45 E.07784
G1 X263.1 Y280.967 E.06421
G1 X261.977 Y281.597 E.09405
G1 X260.98 Y282.001 E.07857
G1 X260.144 Y282.241 E.06353
G1 X259.085 Y282.428 E.07855
G1 X258.209 Y282.489 E.06414
G1 X101.791 Y282.489 E11.42503
G1 X100.274 Y282.33 E.11141
G1 X99.02 Y282.001 E.09469
G1 X97.454 Y281.304 E.1252
G1 X96.189 Y280.45 E.11148
G1 X95.243 Y279.577 E.09402
G1 X94.553 Y278.756 E.07833
G1 X94.064 Y278.033 E.06375
G1 X93.559 Y277.084 E.07852
G1 X92.937 Y275.249 E.14152
G1 X92.784 Y274.379 E.06452
G1 X92.707 Y273.2 E.0863
G1 X92.707 Y86.8 E13.61497
G1 X92.815 Y85.401 E.10249
G1 X93.228 Y83.738 E.12516
G1 X93.847 Y82.344 E.11141
G1 X94.749 Y81.004 E.11798
G1 E-1.4 F3600
;WIPE_START
G1 F5760
G1 X94.782 Y80.954 E-.03557
G1 X94.804 Y80.923 E-.02257
G1 X95.397 Y80.263 E-.52682
G1 X95.416 Y80.246 E-.01504
;WIPE_END
G1 X176.398 Y206.453 F7200
G1 E2.1 F2400
;TYPE:Perimeter
;WIDTH:0.649999
G1 F3415.19
G1 X176.352 Y206.476 E.00376
G1 X176.108 Y206.511 E.018
G1 X145.888 Y206.511 E2.20732
G1 X145.531 Y206.435 E.02666
G1 X145.199 Y206.227 E.02862
G1 X144.987 Y205.936 E.0263
G1 X144.889 Y205.569 E.02775
G1 X144.889 Y154.495 E3.73053
G1 X144.953 Y154.165 E.02455
G1 X145.128 Y153.844 E.0267
G1 X145.41 Y153.621 E.02626
G1 X145.809 Y153.489 E.0307
G1 X176.108 Y153.489 E2.21309
G1 X176.461 Y153.562 E.02633
G1 X176.815 Y153.787 E.03064
G1 X177.025 Y154.092 E.02705
G1 X177.111 Y154.495 E.0301
G1 X177.102 Y205.629 E3.73491
G1 X176.961 Y206.031 E.03112
G1 X176.71 Y206.295 E.02661
G1 X176.452 Y206.426 E.02113
G1 X176.209 Y205.902 F7200
;TYPE:External perimeter
G1 F2400
G1 X176.17 Y205.925 E.00331
G1 X145.89 Y205.925 E2.2117
G1 X145.741 Y205.886 E.01125
G1 X145.538 Y205.728 E.01879
G1 X145.475 Y205.505 E.01693
G1 X145.475 Y154.494 E3.72593
G1 X145.554 Y154.252 E.01859
G1 X145.684 Y154.139 E.01258
G1 X145.89 Y154.075 E.01576
G1 X176.112 Y154.075 E2.20746
G1 X176.361 Y154.173 E.01955
G1 X176.486 Y154.321 E.01415
G1 X176.525 Y154.495 E.01302
G1 X176.525 Y205.505 E3.72585
G1 X176.426 Y205.771 E.02073
G1 X176.26 Y205.871 E.01416
G1 E-1.4 F3600
;WIPE_START
G1 F5760
G1 X176.209 Y205.902 E-.03544
G1 X176.17 Y205.925 E-.02688
G1 X175.264 Y205.925 E-.53768
;WIPE_END
G1 X182.939 Y205.747 F7200
G1 E2.1 F2400
;TYPE:Perimeter
G1 F3415.19
G1 X182.889 Y205.604 E.01107
G1 X182.889 Y154.495 E3.73308
G1 X182.953 Y154.165 E.02455
G1 X183.128 Y153.844 E.0267
G1 X183.41 Y153.621 E.02626
G1 X183.809 Y153.489 E.0307
G1 X214.108 Y153.489 E2.21309
G1 X214.461 Y153.562 E.02633
G1 X214.815 Y153.787 E.03064
G1 X215.025 Y154.092 E.02705
G1 X215.111 Y154.495 E.0301
G1 X215.111 Y205.505 E3.72585
G1 X215.058 Y205.813 E.02283
G1 X214.906 Y206.111 E.02443
G1 X214.618 Y206.351 E.02738
G1 X214.352 Y206.476 E.02147
G1 X214.108 Y206.511 E.018
G1 X183.888 Y206.511 E2.20732
G1 X183.531 Y206.435 E.02666
G1 X183.245 Y206.265 E.0243
G1 X183.04 Y206.035 E.0225
G1 X182.959 Y205.804 E.01788
G1 X183.492 Y205.588 F7200
;TYPE:External perimeter
G1 F2400
G1 X183.475 Y205.505 E.00619
G1 X183.475 Y154.494 E3.72593
G1 X183.554 Y154.252 E.01859
G1 X183.684 Y154.139 E.01258
G1 X183.89 Y154.075 E.01576
G1 X214.112 Y154.075 E2.20746
G1 X214.361 Y154.173 E.01955
G1 X214.486 Y154.321 E.01415
G1 X214.525 Y154.495 E.01302
G1 X214.525 Y205.505 E3.72585
G1 X214.444 Y205.75 E.01885
G1 X214.171 Y205.925 E.02369
G1 X183.89 Y205.925 E2.21177
G1 X183.741 Y205.886 E.01125
G1 X183.607 Y205.805 E.01144
G1 X183.505 Y205.651 E.01349
G1 X183.504 Y205.647 E.0003
G1 E-1.4 F3600
;WIPE_START
G1 F5760
G1 X183.492 Y205.588 E-.03575
G1 X183.475 Y205.505 E-.0503
G1 X183.475 Y204.639 E-.51395
;WIPE_END
G1 X214.398 Y267.252 F7200
G1 E2.1 F2400
;TYPE:Perimeter
G1 F3415.19
G1 X214.343 Y267.279 E.00448
G1 X214.108 Y267.311 E.01732
G1 X183.888 Y267.311 E2.20732
G1 X183.549 Y267.242 E.02527
G1 X183.203 Y267.03 E.02964
G1 X183.001 Y266.764 E.0244
G1 X182.889 Y266.369 E.02999
G1 X182.889 Y215.295 E3.73053
G1 X182.953 Y214.965 E.02455
G1 X183.128 Y214.644 E.0267
G1 X183.41 Y214.421 E.02626
G1 X183.774 Y214.289 E.02828
G1 X214.108 Y214.289 E2.21564
G1 X214.461 Y214.362 E.02633
G1 X214.815 Y214.587 E.03064
G1 X215.025 Y214.892 E.02705
G1 X215.111 Y215.295 E.0301
G1 X215.111 Y266.305 E3.72585
G1 X215.057 Y266.613 E.02284
G1 X214.931 Y266.877 E.02137
G1 X214.659 Y267.127 E.02698
G1 X214.452 Y267.226 E.01676
G1 X214.213 Y266.708 F7200
;TYPE:External perimeter
G1 F2400
G1 X214.19 Y266.725 E.00209
G1 X183.888 Y266.725 E2.21331
G1 X183.641 Y266.628 E.01938
G1 X183.525 Y266.504 E.0124
G1 X183.475 Y266.305 E.01499
G1 X183.475 Y215.294 E3.72593
G1 X183.554 Y215.052 E.01859
G1 X183.684 Y214.939 E.01258
G1 X183.851 Y214.875 E.01306
G1 X214.108 Y214.875 E2.21002
G1 X214.293 Y214.934 E.01418
G1 X214.46 Y215.07 E.01573
G1 X214.525 Y215.295 E.01711
G1 X214.525 Y266.305 E3.72585
G1 X214.453 Y266.539 E.01788
G1 X214.262 Y266.674 E.01708
G1 E-1.4 F3600
;WIPE_START
G1 F5760
G1 X214.213 Y266.708 E-.03541
G1 X214.19 Y266.725 E-.01698
G1 X213.268 Y266.725 E-.54761
;WIPE_END
G1 X177.063 Y266.579 F7200
G1 E2.1 F2400
;TYPE:Perimeter
G1 F3415.19
G1 X177.057 Y266.613 E.00252
G1 X176.931 Y266.877 E.02137
G1 X176.659 Y267.127 E.02698
G1 X176.343 Y267.279 E.02561
G1 X176.108 Y267.311 E.01732
G1 X145.888 Y267.311 E2.20732
G1 X145.549 Y267.242 E.02527
G1 X145.203 Y267.03 E.02964
G1 X145.001 Y266.764 E.0244
G1 X144.889 Y266.369 E.02999
G1 X144.889 Y215.295 E3.73053
G1 X144.953 Y214.965 E.02455
G1 X145.128 Y214.644 E.0267
G1 X145.41 Y214.421 E.02626
G1 X145.809 Y214.289 E.0307
G1 X176.112 Y214.289 E2.21338
G1 X176.461 Y214.362 E.02604
G1 X176.815 Y214.587 E.03064
G1 X177.025 Y214.892 E.02705
G1 X177.111 Y215.295 E.0301
G1 X177.111 Y266.305 E3.72585
G1 X177.074 Y266.52 E.01593
G1 X176.497 Y266.396 F7200
;TYPE:External perimeter
G1 F2400
G1 X176.453 Y266.539 E.01093
G1 X176.19 Y266.725 E.02353
G1 X145.888 Y266.725 E2.21331
G1 X145.641 Y266.628 E.01938
G1 X145.525 Y266.504 E.0124
G1 X145.475 Y266.305 E.01499
G1 X145.475 Y215.294 E3.72593
G1 X145.554 Y215.052 E.01859
G1 X145.684 Y214.939 E.01258
G1 X145.89 Y214.875 E.01576
G1 X176.112 Y214.875 E2.20746
G1 X176.361 Y214.973 E.01955
G1 X176.486 Y215.121 E.01415
G1 X176.525 Y215.295 E.01302
G1 X176.525 Y266.305 E3.72585
G1 X176.514 Y266.339 E.00261
G1 E-1.4 F3600
;WIPE_START
G1 F5760
G1 X176.497 Y266.396 E-.03532
G1 X176.453 Y266.539 E-.08883
G1 X176.19 Y266.725 E-.19126
G1 X175.711 Y266.725 E-.28459
;WIPE_END
G1 X138.398 Y267.252 F7200
G1 E2.1 F2400
;TYPE:Perimeter
G1 F3415.19
G1 X138.343 Y267.279 E.00448
G1 X138.108 Y267.311 E.01732
G1 X107.888 Y267.311 E2.20732
G1 X107.549 Y267.242 E.02527
G1 X107.233 Y267.055 E.02682
G1 X107.032 Y266.823 E.02242
G1 X106.889 Y266.402 E.03248
G1 X106.889 Y215.294 E3.73301
G1 X106.953 Y214.965 E.02448
G1 X107.104 Y214.675 E.02388
G1 X107.377 Y214.438 E.02641
G1 X107.752 Y214.289 E.02947
G1 X138.108 Y214.289 E2.21725
G1 X138.461 Y214.362 E.02633
G1 X138.815 Y214.587 E.03064
G1 X138.957 Y214.759 E.01629
G1 X139.077 Y215.053 E.02319
G1 X139.111 Y215.295 E.01785
G1 X139.111 Y266.305 E3.72585
G1 X139.057 Y266.613 E.02284
G1 X138.931 Y266.877 E.02137
G1 X138.659 Y267.127 E.02698
G1 X138.452 Y267.226 E.01676
G1 X138.213 Y266.708 F7200
;TYPE:External perimeter
G1 F2400
G1 X138.19 Y266.725 E.00209
G1 X107.888 Y266.725 E2.21331
G1 X107.641 Y266.628 E.01938
G1 X107.519 Y266.491 E.0134
G1 X107.475 Y266.305 E.01396
G1 X107.475 Y215.294 E3.72593
G1 X107.57 Y215.029 E.02056
G1 X107.822 Y214.875 E.02157
G1 X138.108 Y214.875 E2.21214
G1 X138.293 Y214.934 E.01418
G1 X138.46 Y215.07 E.01573
G1 X138.525 Y215.295 E.01711
G1 X138.525 Y266.305 E3.72585
G1 X138.453 Y266.539 E.01788
G1 X138.262 Y266.674 E.01708
G1 E-1.4 F3600
;WIPE_START
G1 F5760
G1 X138.213 Y266.708 E-.03541
G1 X138.19 Y266.725 E-.01698
G1 X137.268 Y266.725 E-.54761
;WIPE_END
G1 X138.536 Y206.39 F7200
G1 E2.1 F2400
;TYPE:Perimeter
G1 F3415.19
G1 X138.352 Y206.476 E.01484
G1 X138.108 Y206.511 E.018
G1 X107.888 Y206.511 E2.20732
G1 X107.531 Y206.435 E.02666
G1 X107.163 Y206.191 E.03225
G1 X106.982 Y205.925 E.0235
G1 X106.889 Y205.597 E.0249
G1 X106.889 Y154.494 E3.73265
G1 X106.953 Y154.165 E.02448
G1 X107.104 Y153.875 E.02388
G1 X107.377 Y153.638 E.02641
G1 X107.752 Y153.489 E.02947
G1 X138.108 Y153.489 E2.21725
G1 X138.461 Y153.562 E.02633
G1 X138.815 Y153.787 E.03064
G1 X139.025 Y154.092 E.02705
G1 X139.111 Y154.495 E.0301
G1 X139.111 Y205.505 E3.72585
G1 X139.058 Y205.813 E.02283
G1 X138.906 Y206.111 E.02443
G1 X138.618 Y206.351 E.02738
G1 X138.59 Y206.364 E.00225
G1 X138.268 Y205.863 F7200
;TYPE:External perimeter
G1 F2400
G1 X138.171 Y205.925 E.00841
G1 X107.89 Y205.925 E2.21177
G1 X107.741 Y205.886 E.01125
G1 X107.536 Y205.724 E.01908
G1 X107.475 Y205.505 E.01661
G1 X107.475 Y154.494 E3.72593
G1 X107.57 Y154.229 E.02056
G1 X107.822 Y154.075 E.02157
G1 X138.108 Y154.075 E2.21214
G1 X138.293 Y154.134 E.01418
G1 X138.46 Y154.27 E.01573
G1 X138.525 Y154.495 E.01711
G1 X138.525 Y205.505 E3.72585
G1 X138.444 Y205.75 E.01885
G1 X138.318 Y205.831 E.01094
G1 E-1.4 F3600
;WIPE_START
G1 F5760
G1 X138.268 Y205.863 E-.03525
G1 X138.171 Y205.925 E-.06835
G1 X137.335 Y205.925 E-.4964
;WIPE_END
G1 X176.817 Y145.385 F7200
G1 E2.1 F2400
;TYPE:Perimeter
G1 F3415.19
G1 X176.619 Y145.551 E.01887
G1 X176.352 Y145.676 E.02153
G1 X176.108 Y145.711 E.018
G1 X145.888 Y145.711 E2.20732
G1 X145.531 Y145.635 E.02666
G1 X145.245 Y145.465 E.0243
G1 X145.04 Y145.235 E.0225
G1 X144.889 Y144.804 E.03336
G1 X144.889 Y93.695 E3.73308
G1 X144.953 Y93.365 E.02455
G1 X145.11 Y93.067 E.0246
G1 X145.322 Y92.872 E.02104
G1 X145.77 Y92.689 E.03535
G1 X176.112 Y92.689 E2.21623
G1 X176.451 Y92.758 E.02527
G1 X176.784 Y92.959 E.02841
G1 X176.966 Y93.175 E.02063
G1 X177.111 Y93.597 E.03259
G1 X177.111 Y144.705 E3.73301
G1 X177.057 Y145.013 E.02284
G1 X176.906 Y145.311 E.0244
G1 X176.863 Y145.346 E.00405
G1 X176.405 Y144.975 F7200
;TYPE:External perimeter
G1 F2400
G1 X176.171 Y145.125 E.0203
G1 X145.89 Y145.125 E2.21177
G1 X145.741 Y145.086 E.01125
G1 X145.607 Y145.005 E.01144
G1 X145.505 Y144.851 E.01349
G1 X145.475 Y144.705 E.01089
G1 X145.475 Y93.694 E3.72593
G1 X145.572 Y93.426 E.02082
G1 X145.828 Y93.275 E.02171
G1 X176.112 Y93.275 E2.21199
G1 X176.359 Y93.372 E.01938
G1 X176.486 Y93.521 E.0143
G1 X176.525 Y93.695 E.01302
G1 X176.525 Y144.705 E3.72585
G1 X176.448 Y144.937 E.01785
G1 E-1.4 F3600
;WIPE_START
G1 F5760
G1 X176.405 Y144.975 E-.03407
G1 X176.171 Y145.125 E-.16503
G1 X175.496 Y145.125 E-.4009
;WIPE_END
G1 X138.473 Y145.619 F7200
G1 E2.1 F2400
;TYPE:Perimeter
G1 F3415.19
G1 X138.352 Y145.676 E.00977
G1 X138.108 Y145.711 E.018
G1 X107.888 Y145.711 E2.20732
G1 X107.531 Y145.635 E.02666
G1 X107.163 Y145.391 E.03225
G1 X106.982 Y145.125 E.0235
G1 X106.889 Y144.705 E.03142
G1 X106.889 Y93.694 E3.72593
G1 X106.953 Y93.365 E.02448
G1 X107.101 Y93.079 E.02352
G1 X107.34 Y92.86 E.02368
G1 X107.771 Y92.689 E.03387
G1 X138.112 Y92.689 E2.21616
G1 X138.451 Y92.758 E.02527
G1 X138.784 Y92.959 E.02841
G1 X138.966 Y93.175 E.02063
G1 X139.111 Y93.597 E.03259
G1 X139.111 Y144.705 E3.73301
G1 X139.057 Y145.013 E.02284
G1 X138.906 Y145.311 E.0244
G1 X138.619 Y145.551 E.02733
G1 X138.528 Y145.594 E.00735
G1 X138.244 Y145.078 F7200
;TYPE:External perimeter
G1 F2400
G1 X138.171 Y145.125 E.00634
G1 X107.89 Y145.125 E2.21177
G1 X107.741 Y145.086 E.01125
G1 X107.536 Y144.924 E.01908
G1 X107.475 Y144.746 E.01374
G1 X107.475 Y93.694 E3.72892
G1 X107.569 Y93.431 E.0204
G1 X107.771 Y93.3 E.01759
G1 X107.89 Y93.275 E.00888
G1 X138.112 Y93.275 E2.20746
G1 X138.359 Y93.372 E.01938
G1 X138.486 Y93.521 E.0143
G1 X138.525 Y93.695 E.01302
