; generated by PrusaSlicer 2.9.4 on 2026-04-17 at 20:53:36 UTC

; 0.3HC20_333

; external perimeters extrusion width = 0.65mm
; perimeters extrusion width = 0.65mm
; infill extrusion width = 0.65mm
; solid infill extrusion width = 0.60mm
; top infill extrusion width = 0.60mm
; support material extrusion width = 0.65mm
; first layer extrusion width = 0.65mm

;TYPE:Custom
G90 ; use absolute coordinates
M83 ; extruder relative mode
M104 S150 ; set temporary nozzle temp to prevent oozing during homing and auto bed leveling
M140 S90 ; set final bed temp
M190 S90 ; wait for bed temp to stabilize
G28 ; home all axis
M104 S255 ; set final nozzle temp
M109 S255 ; wait for nozzle temp to stabilize
G1 Z0.28 F240
G92 E0
G21 ; set units to millimeters
G90 ; use absolute coordinates
M83 ; use relative distances for extrusion
; Filament gcode
M107
;LAYER_CHANGE
;Z:0.3
;HEIGHT:0.3
G1 E-2 F3600
G1 Z.3 F7200
G1 X86.984 Y102.753
G1 E2.1 F2400
;TYPE:Skirt/Brim
;WIDTH:0.65
G1 F3415.187
G1 X88.606 Y101.669 E.1425
G1 X90.216 Y101.002 E.12729
G1 X92.129 Y100.622 E.14246
G1 X93 Y100.536 E.06393
G1 X267 Y100.536 E12.70925
G1 X267.871 Y100.622 E.06393
G1 X269.784 Y101.002 E.14246
G1 X271.394 Y101.669 E.12729
G1 X273.016 Y102.753 E.1425
G1 X274.247 Y103.984 E.12716
G1 X275.331 Y105.606 E.1425
G1 X275.998 Y107.216 E.12729
G1 X276.378 Y109.129 E.14246
G1 X276.464 Y110 E.06393
G1 X276.464 Y250 E10.22584
G1 X276.378 Y250.871 E.06393
G1 X275.998 Y252.784 E.14246
G1 X275.331 Y254.394 E.12729
G1 X274.247 Y256.016 E.1425
G1 X273.016 Y257.247 E.12716
G1 X271.394 Y258.331 E.1425
G1 X269.784 Y258.998 E.12729
G1 X267.871 Y259.378 E.14246
G1 X267 Y259.464 E.06393
G1 X93 Y259.464 E12.70925
G1 X92.129 Y259.378 E.06393
G1 X90.216 Y258.998 E.14246
G1 X88.606 Y258.331 E.12729
G1 X86.984 Y257.247 E.1425
G1 X85.753 Y256.016 E.12716
G1 X84.669 Y254.393 E.14256
G1 X84.002 Y252.784 E.12722
G1 X83.622 Y250.871 E.14246
G1 X83.536 Y250 E.06393
G1 X83.536 Y110 E10.22584
G1 X83.622 Y109.129 E.06393
G1 X84.002 Y107.216 E.14246
G1 X84.669 Y105.607 E.12722
G1 X85.753 Y103.984 E.14256
G1 X86.942 Y102.795 E.12282
G1 X87.31 Y103.24 F7200
G1 F3415.187
G1 X88.932 Y102.156 E.1425
G1 X90.33 Y101.577 E.11052
G1 X92.243 Y101.196 E.14247
G1 X93 Y101.122 E.05556
G1 X267 Y101.122 E12.70925
G1 X267.757 Y101.196 E.05556
G1 X269.67 Y101.577 E.14247
G1 X271.068 Y102.156 E.11052
G1 X272.69 Y103.24 E.1425
G1 X273.76 Y104.31 E.11053
G1 X274.844 Y105.932 E.1425
G1 X275.423 Y107.33 E.11052
G1 X275.804 Y109.243 E.14247
G1 X275.878 Y110 E.05556
G1 X275.878 Y250 E10.22584
G1 X275.804 Y250.757 E.05556
G1 X275.423 Y252.67 E.14247
G1 X274.844 Y254.068 E.11052
G1 X273.76 Y255.69 E.1425
G1 X272.69 Y256.76 E.11053
G1 X271.068 Y257.844 E.1425
G1 X269.67 Y258.423 E.11052
G1 X267.757 Y258.804 E.14247
G1 X267 Y258.878 E.05556
G1 X93 Y258.878 E12.70925
G1 X92.243 Y258.804 E.05556
G1 X90.33 Y258.423 E.14247
G1 X88.932 Y257.844 E.11052
G1 X87.31 Y256.76 E.1425
G1 X86.24 Y255.69 E.11053
G1 X85.156 Y254.068 E.1425
G1 X84.577 Y252.67 E.11052
G1 X84.196 Y250.757 E.14247
G1 X84.122 Y250 E.05556
G1 X84.122 Y110 E10.22584
G1 X84.196 Y109.243 E.05556
G1 X84.577 Y107.33 E.14247
G1 X85.156 Y105.932 E.11052
G1 X86.24 Y104.31 E.1425
G1 X87.267 Y103.282 E.10614
G1 X87.635 Y103.727 F7200
G1 F3415.187
G1 X89.257 Y102.643 E.1425
G1 X90.444 Y102.151 E.09385
G1 X93 Y101.707 E.18949
G1 X267 Y101.707 E12.70925
G1 X267.642 Y101.77 E.04712
G1 X269.556 Y102.151 E.14254
G1 X270.743 Y102.643 E.09385
G1 X272.365 Y103.727 E.1425
G1 X273.273 Y104.635 E.09379
G1 X274.357 Y106.257 E.1425
G1 X274.849 Y107.444 E.09385
G1 X275.293 Y110 E.18949
G1 X275.293 Y250 E10.22584
G1 X274.849 Y252.556 E.18949
G1 X274.357 Y253.743 E.09385
G1 X273.273 Y255.365 E.1425
G1 X272.365 Y256.273 E.09379
G1 X270.743 Y257.357 E.1425
G1 X269.556 Y257.849 E.09385
G1 X267 Y258.293 E.18949
G1 X93 Y258.293 E12.70925
G1 X90.444 Y257.849 E.18949
G1 X89.257 Y257.357 E.09385
G1 X87.635 Y256.273 E.1425
G1 X86.727 Y255.365 E.09379
G1 X85.643 Y253.743 E.1425
G1 X85.151 Y252.556 E.09385
G1 X84.707 Y250 E.18949
G1 X84.707 Y110 E10.22584
G1 X85.151 Y107.444 E.18949
G1 X85.643 Y106.257 E.09385
G1 X86.727 Y104.635 E.1425
G1 X87.593 Y103.769 E.08945
G1 E-1.4 F3600
;WIPE_START
G1 F5760
G1 X87.635 Y103.727 E-.03527
G1 X88.426 Y103.198 E-.56473
;WIPE_END
G1 X207.145 Y211.646 F7200
G1 E2.1 F2400
;TYPE:Perimeter
;WIDTH:0.649999
G1 F3415.19
G1 X206.996 Y211.778 E.01454
G1 X206.639 Y211.911 E.02783
G1 X200.411 Y211.911 E.4549
G1 X200.411 Y212.532 E.04536
G1 X200.336 Y212.887 E.0265
G1 X200.135 Y213.171 E.02541
G1 X199.796 Y213.37 E.02871
G1 X199.532 Y213.411 E.01951
G1 X160.468 Y213.411 E2.8533
G1 X160.204 Y213.37 E.01951
G1 X159.865 Y213.171 E.02871
G1 X159.664 Y212.887 E.02541
G1 X159.589 Y212.532 E.0265
G1 X159.589 Y211.911 E.04536
G1 X153.468 Y211.911 E.44709
G1 X153.207 Y211.871 E.01929
G1 X152.942 Y211.736 E.02172
G1 X152.694 Y211.447 E.02782
G1 X152.589 Y211.098 E.02662
G1 X152.589 Y183.968 E1.98162
G1 X152.619 Y183.74 E.0168
G1 X152.783 Y183.417 E.02646
G1 X153.004 Y183.222 E.02153
G1 X153.361 Y183.089 E.02783
G1 X159.589 Y183.089 E.4549
G1 X159.589 Y182.468 E.04536
G1 X159.664 Y182.113 E.0265
G1 X159.865 Y181.829 E.02541
G1 X160.204 Y181.63 E.02871
G1 X160.468 Y181.589 E.01951
G1 X199.532 Y181.589 E2.8533
G1 X199.796 Y181.63 E.01951
G1 X200.135 Y181.829 E.02871
G1 X200.336 Y182.113 E.02541
G1 X200.411 Y182.468 E.0265
G1 X200.411 Y183.089 E.04536
G1 X206.532 Y183.089 E.44709
G1 X206.904 Y183.172 E.02784
G1 X207.131 Y183.326 E.02004
G1 X207.306 Y183.553 E.02094
G1 X207.381 Y183.74 E.01472
G1 X207.411 Y183.968 E.0168
G1 X207.411 Y211.032 E1.9768
G1 X207.381 Y211.26 E.0168
G1 X207.217 Y211.583 E.02646
G1 X207.19 Y211.606 E.00259
G1 X206.732 Y211.235 F7200
;TYPE:External perimeter
G1 F2400
G1 X206.6 Y211.325 E.01167
G1 X199.825 Y211.325 E.49486
G1 X199.825 Y212.532 E.08816
G1 X199.761 Y212.714 E.01409
G1 X199.6 Y212.825 E.01428
G1 X160.468 Y212.825 E2.85826
G1 X160.312 Y212.78 E.01186
G1 X160.175 Y212.622 E.01527
G1 X160.175 Y211.325 E.09473
G1 X153.468 Y211.325 E.48989
G1 X153.293 Y211.267 E.01347
G1 X153.175 Y211.093 E.01536
G1 X153.175 Y183.968 E1.98125
G1 X153.24 Y183.784 E.01425
G1 X153.313 Y183.719 E.00714
G1 X153.468 Y183.675 E.01177
G1 X160.175 Y183.675 E.48989
G1 X160.175 Y182.468 E.08816
G1 X160.239 Y182.286 E.01409
G1 X160.4 Y182.175 E.01428
G1 X199.532 Y182.175 E2.85826
G1 X199.733 Y182.255 E.0158
G1 X199.825 Y182.385 E.01163
G1 X199.825 Y183.675 E.09422
G1 X206.532 Y183.675 E.48989
G1 X206.707 Y183.733 E.01347
G1 X206.825 Y183.907 E.01536
G1 X206.825 Y211.032 E1.98125
G1 X206.769 Y211.192 E.01238
G1 E-1.4 F3600
;WIPE_START
G1 F5760
G1 X206.732 Y211.235 E-.03368
G1 X206.6 Y211.325 E-.09486
G1 X205.806 Y211.325 E-.47146
;WIPE_END
G1 X200.152 Y216.853 F7200
G1 E2.1 F2400
;TYPE:Perimeter
G1 F3415.19
G1 X200.336 Y217.113 E.02327
G1 X200.411 Y217.468 E.0265
G1 X200.411 Y218.089 E.04536
G1 X206.532 Y218.089 E.44709
G1 X206.904 Y218.172 E.02784
G1 X207.131 Y218.326 E.02004
G1 X207.306 Y218.553 E.02094
G1 X207.381 Y218.74 E.01472
G1 X207.411 Y218.968 E.0168
G1 X207.411 Y246.032 E1.9768
G1 X207.378 Y246.268 E.01741
G1 X207.206 Y246.596 E.02705
G1 X206.983 Y246.786 E.0214
G1 X206.648 Y246.911 E.02612
G1 X200.411 Y246.911 E.45556
G1 X200.411 Y247.532 E.04536
G1 X200.319 Y247.923 E.02934
G1 X200.064 Y248.232 E.02926
G1 X199.68 Y248.411 E.03095
G1 X160.468 Y248.411 E2.86411
G1 X160.092 Y248.326 E.02816
G1 X159.811 Y248.116 E.02562
G1 X159.681 Y247.923 E.017
G1 X159.589 Y247.532 E.02934
G1 X159.589 Y246.911 E.04536
G1 X153.468 Y246.911 E.44709
G1 X153.155 Y246.853 E.02325
G1 X152.881 Y246.686 E.02344
G1 X152.701 Y246.46 E.0211
G1 X152.589 Y246.098 E.02768
G1 X152.589 Y218.968 E1.98162
G1 X152.619 Y218.74 E.0168
G1 X152.783 Y218.417 E.02646
G1 X153.004 Y218.222 E.02153
G1 X153.361 Y218.089 E.02783
G1 X159.589 Y218.089 E.4549
G1 X159.589 Y217.468 E.04536
G1 X159.664 Y217.113 E.0265
G1 X159.865 Y216.829 E.02541
G1 X160.204 Y216.63 E.02871
G1 X160.468 Y216.589 E.01951
G1 X199.532 Y216.589 E2.8533
G1 X199.796 Y216.63 E.01951
G1 X200.109 Y216.814 E.02652
G1 X199.74 Y217.265 F7200
;TYPE:External perimeter
G1 F2400
G1 X199.825 Y217.385 E.01074
G1 X199.825 Y218.675 E.09422
G1 X206.532 Y218.675 E.48989
G1 X206.707 Y218.733 E.01347
G1 X206.825 Y218.907 E.01536
G1 X206.825 Y246.032 E1.98125
G1 X206.757 Y246.22 E.0146
G1 X206.575 Y246.325 E.01535
G1 X199.825 Y246.325 E.49303
G1 X199.825 Y247.532 E.08816
G1 X199.751 Y247.727 E.01523
G1 X199.575 Y247.825 E.01471
G1 X160.468 Y247.825 E2.85644
G1 X160.291 Y247.765 E.01365
G1 X160.206 Y247.662 E.00975
G1 X160.175 Y247.532 E.00976
G1 X160.175 Y246.325 E.08816
G1 X153.468 Y246.325 E.48989
G1 X153.272 Y246.25 E.01533
G1 X153.175 Y246.093 E.01348
G1 X153.185 Y218.892 E1.98681
G1 X153.293 Y218.733 E.01404
G1 X153.468 Y218.675 E.01347
G1 X160.175 Y218.675 E.48989
G1 X160.175 Y217.468 E.08816
G1 X160.239 Y217.286 E.01409
G1 X160.4 Y217.175 E.01428
G1 X199.532 Y217.175 E2.85826
G1 X199.689 Y217.237 E.01233
G1 E-1.4 F3600
;WIPE_START
G1 F5760
G1 X199.74 Y217.265 E-.03454
G1 X199.825 Y217.385 E-.08731
G1 X199.825 Y218.19 E-.47815
;WIPE_END
G1 X149.145 Y211.646 F7200
G1 E2.1 F2400
;TYPE:Perimeter
G1 F3415.19
G1 X148.996 Y211.778 E.01454
G1 X148.639 Y211.911 E.02783
G1 X142.411 Y211.911 E.4549
G1 X142.411 Y212.532 E.04536
G1 X142.336 Y212.887 E.0265
G1 X142.135 Y213.171 E.02541
G1 X141.796 Y213.37 E.02871
G1 X141.532 Y213.411 E.01951
G1 X102.468 Y213.411 E2.8533
G1 X102.204 Y213.37 E.01951
G1 X101.865 Y213.171 E.02871
G1 X101.664 Y212.887 E.02541
G1 X101.589 Y212.532 E.0265
G1 X101.589 Y211.911 E.04536
G1 X95.468 Y211.911 E.44709
G1 X95.189 Y211.865 E.02065
G1 X94.979 Y211.762 E.01708
G1 X94.753 Y211.542 E.02304
G1 X94.589 Y211.152 E.0309
G1 X94.589 Y183.968 E1.98556
G1 X94.666 Y183.609 E.02682
G1 X94.86 Y183.333 E.02464
G1 X95.073 Y183.183 E.01903
G1 X95.403 Y183.089 E.02506
G1 X101.589 Y183.089 E.45184
G1 X101.589 Y182.468 E.04536
G1 X101.664 Y182.113 E.0265
G1 X101.865 Y181.829 E.02541
G1 X102.204 Y181.63 E.02871
G1 X102.468 Y181.589 E.01951
G1 X141.532 Y181.589 E2.8533
G1 X141.796 Y181.63 E.01951
G1 X142.135 Y181.829 E.02871
G1 X142.336 Y182.113 E.02541
G1 X142.411 Y182.468 E.0265
G1 X142.411 Y183.089 E.04536
G1 X148.532 Y183.089 E.44709
G1 X148.904 Y183.172 E.02784
G1 X149.131 Y183.326 E.02004
G1 X149.306 Y183.553 E.02094
G1 X149.381 Y183.74 E.01472
G1 X149.411 Y183.968 E.0168
G1 X149.411 Y211.032 E1.9768
G1 X149.381 Y211.26 E.0168
G1 X149.217 Y211.583 E.02646
G1 X149.19 Y211.606 E.00259
G1 X148.732 Y211.235 F7200
;TYPE:External perimeter
G1 F2400
G1 X148.6 Y211.325 E.01167
G1 X141.825 Y211.325 E.49486
G1 X141.825 Y212.532 E.08816
G1 X141.761 Y212.714 E.01409
G1 X141.6 Y212.825 E.01428
G1 X102.468 Y212.825 E2.85826
G1 X102.38 Y212.811 E.00651
G1 X102.239 Y212.714 E.0125
G1 X102.175 Y212.532 E.01409
G1 X102.175 Y211.325 E.08816
G1 X95.468 Y211.325 E.48989
G1 X95.305 Y211.275 E.01245
G1 X95.201 Y211.152 E.01177
G1 X95.175 Y211.032 E.00897
G1 X95.175 Y183.968 E1.9768
G1 X95.229 Y183.798 E.01303
G1 X95.395 Y183.675 E.01509
G1 X102.175 Y183.675 E.49522
G1 X102.175 Y182.468 E.08816
G1 X102.239 Y182.286 E.01409
G1 X102.4 Y182.175 E.01428
G1 X141.532 Y182.175 E2.85826
G1 X141.733 Y182.255 E.0158
G1 X141.825 Y182.385 E.01163
G1 X141.825 Y183.675 E.09422
G1 X148.532 Y183.675 E.48989
G1 X148.707 Y183.733 E.01347
G1 X148.825 Y183.907 E.01536
G1 X148.825 Y211.032 E1.98125
G1 X148.769 Y211.192 E.01238
G1 E-1.4 F3600
;WIPE_START
G1 F5760
G1 X148.732 Y211.235 E-.03368
G1 X148.6 Y211.325 E-.09486
G1 X147.806 Y211.325 E-.47146
;WIPE_END
G1 X149.146 Y246.647 F7200
G1 E2.1 F2400
;TYPE:Perimeter
G1 F3415.19
G1 X148.983 Y246.786 E.01565
G1 X148.648 Y246.911 E.02612
G1 X142.411 Y246.911 E.45556
G1 X142.411 Y247.532 E.04536
G1 X142.319 Y247.923 E.02934
G1 X142.064 Y248.232 E.02926
G1 X141.68 Y248.411 E.03095
G1 X102.468 Y248.411 E2.86411
G1 X102.092 Y248.326 E.02816
G1 X101.811 Y248.116 E.02562
G1 X101.681 Y247.923 E.017
G1 X101.589 Y247.532 E.02934
G1 X101.589 Y246.911 E.04536
G1 X95.468 Y246.911 E.44709
G1 X95.211 Y246.872 E.01899
G1 X94.911 Y246.711 E.02487
G1 X94.682 Y246.426 E.0267
G1 X94.589 Y246.144 E.02169
G1 X94.589 Y218.968 E1.98498
G1 X94.666 Y218.609 E.02682
G1 X94.86 Y218.333 E.02464
G1 X95.073 Y218.183 E.01903
G1 X95.403 Y218.089 E.02506
G1 X101.589 Y218.089 E.45184
G1 X101.589 Y217.468 E.04536
G1 X101.664 Y217.113 E.0265
G1 X101.865 Y216.829 E.02541
G1 X102.204 Y216.63 E.02871
G1 X102.468 Y216.589 E.01951
G1 X141.532 Y216.589 E2.8533
G1 X141.796 Y216.63 E.01951
G1 X142.135 Y216.829 E.02871
G1 X142.336 Y217.113 E.02541
G1 X142.411 Y217.468 E.0265
G1 X142.411 Y218.089 E.04536
G1 X148.532 Y218.089 E.44709
G1 X148.904 Y218.172 E.02784
G1 X149.131 Y218.326 E.02004
G1 X149.306 Y218.553 E.02094
G1 X149.381 Y218.74 E.01472
G1 X149.411 Y218.968 E.0168
G1 X149.411 Y246.032 E1.9768
G1 X149.378 Y246.268 E.01741
G1 X149.206 Y246.596 E.02705
G1 X149.191 Y246.608 E.0014
G1 X148.73 Y246.235 F7200
;TYPE:External perimeter
G1 F2400
G1 X148.575 Y246.325 E.01309
G1 X141.825 Y246.325 E.49303
G1 X141.825 Y247.532 E.08816
G1 X141.751 Y247.727 E.01523
G1 X141.575 Y247.825 E.01471
G1 X102.468 Y247.825 E2.85644
G1 X102.291 Y247.765 E.01365
G1 X102.206 Y247.662 E.00975
G1 X102.175 Y247.532 E.00976
G1 X102.175 Y246.325 E.08816
G1 X95.468 Y246.325 E.48989
G1 X95.282 Y246.259 E.01442
G1 X95.175 Y246.075 E.01555
G1 X95.175 Y218.968 E1.97994
G1 X95.229 Y218.798 E.01303
G1 X95.445 Y218.675 E.01816
G1 X102.175 Y218.675 E.49157
G1 X102.175 Y217.468 E.08816
G1 X102.239 Y217.286 E.01409
G1 X102.4 Y217.175 E.01428
G1 X141.532 Y217.175 E2.85826
G1 X141.733 Y217.255 E.0158
G1 X141.825 Y217.385 E.01163
G1 X141.825 Y218.675 E.09422
G1 X148.532 Y218.675 E.48989
G1 X148.707 Y218.733 E.01347
G1 X148.825 Y218.907 E.01536
G1 X148.825 Y246.032 E1.98125
G1 X148.767 Y246.192 E.01243
G1 E-1.4 F3600
;WIPE_START
G1 F5760
G1 X148.73 Y246.235 E-.03368
G1 X148.575 Y246.325 E-.10642
G1 X147.8 Y246.325 E-.4599
;WIPE_END
G1 X149.145 Y176.646 F7200
G1 E2.1 F2400
;TYPE:Perimeter
G1 F3415.19
G1 X148.996 Y176.778 E.01454
G1 X148.639 Y176.911 E.02783
G1 X142.411 Y176.911 E.4549
G1 X142.411 Y177.532 E.04536
G1 X142.336 Y177.887 E.0265
G1 X142.135 Y178.171 E.02541
G1 X141.796 Y178.37 E.02871
G1 X141.532 Y178.411 E.01951
G1 X102.468 Y178.411 E2.8533
G1 X102.204 Y178.37 E.01951
G1 X101.865 Y178.171 E.02871
G1 X101.664 Y177.887 E.02541
G1 X101.589 Y177.532 E.0265
G1 X101.589 Y176.911 E.04536
G1 X95.468 Y176.911 E.44709
G1 X95.189 Y176.865 E.02065
G1 X94.979 Y176.762 E.01708
G1 X94.753 Y176.542 E.02304
G1 X94.589 Y176.152 E.0309
G1 X94.589 Y148.968 E1.98556
G1 X94.666 Y148.609 E.02682
G1 X94.86 Y148.333 E.02464
G1 X95.073 Y148.183 E.01903
G1 X95.403 Y148.089 E.02506
G1 X101.589 Y148.089 E.45184
G1 X101.589 Y147.468 E.04536
G1 X101.664 Y147.113 E.0265
G1 X101.865 Y146.829 E.02541
G1 X102.204 Y146.63 E.02871
G1 X102.468 Y146.589 E.01951
G1 X141.532 Y146.589 E2.8533
G1 X141.796 Y146.63 E.01951
G1 X142.135 Y146.829 E.02871
G1 X142.336 Y147.113 E.02541
G1 X142.411 Y147.468 E.0265
G1 X142.411 Y148.089 E.04536
G1 X148.532 Y148.089 E.44709
G1 X148.904 Y148.172 E.02784
G1 X149.131 Y148.326 E.02004
G1 X149.306 Y148.553 E.02094
G1 X149.381 Y148.74 E.01472
G1 X149.411 Y148.968 E.0168
G1 X149.411 Y176.032 E1.9768
G1 X149.381 Y176.26 E.0168
G1 X149.217 Y176.583 E.02646
G1 X149.19 Y176.606 E.00259
G1 X148.732 Y176.235 F7200
;TYPE:External perimeter
G1 F2400
G1 X148.6 Y176.325 E.01167
G1 X141.825 Y176.325 E.49486
G1 X141.825 Y177.532 E.08816
G1 X141.761 Y177.714 E.01409
G1 X141.6 Y177.825 E.01428
G1 X102.468 Y177.825 E2.85826
G1 X102.312 Y177.78 E.01186
G1 X102.175 Y177.622 E.01527
G1 X102.175 Y176.325 E.09473
G1 X95.468 Y176.325 E.48989
G1 X95.305 Y176.275 E.01245
G1 X95.201 Y176.152 E.01177
G1 X95.175 Y176.032 E.00897
G1 X95.175 Y148.968 E1.9768
G1 X95.229 Y148.798 E.01303
G1 X95.395 Y148.675 E.01509
G1 X102.175 Y148.675 E.49522
G1 X102.175 Y147.468 E.08816
G1 X102.239 Y147.286 E.01409
G1 X102.4 Y147.175 E.01428
G1 X141.532 Y147.175 E2.85826
G1 X141.733 Y147.255 E.0158
G1 X141.825 Y147.385 E.01163
G1 X141.825 Y148.675 E.09422
