; generated by PrusaSlicer 2.7.4+MacOS-arm64 on 2024-05-12 at 17:37:55 UTC

; 0.3HC20_333

; external perimeters extrusion width = 0.60mm
; perimeters extrusion width = 0.60mm
; infill extrusion width = 0.65mm
; solid infill extrusion width = 0.45mm
; top infill extrusion width = 0.40mm
; first layer extrusion width = 0.65mm

M190 S102 ; set bed temperature and wait for it to be reached
M104 S255 ; set temperature
;TYPE:Custom
G28 ; home all axes
M109 S255 ; set temperature and wait for it to be reached
G21 ; set units to millimeters
G90 ; use absolute coordinates
M82 ; use absolute distances for extrusion
G92 E0
; Filament gcode
M107
;LAYER_CHANGE
;Z:0.3
;HEIGHT:0.3
G1 E-4 F2400
G1 Z.3 F3600
G1 X22.283 Y67.83
G1 E0 F2400
;TYPE:Skirt/Brim
;WIDTH:0.65
G1 F1800
G1 X24.631 Y67.363 E.16612
G1 X25.853 Y67.243 E.25132
G1 X224.614 Y67.266 E14.04327
G1 X227.717 Y67.83 E14.26211
G1 X229.155 Y68.327 E14.36768
G1 X229.977 Y68.767 E14.43238
G1 X232.091 Y70.179 E14.60878
G1 X233.229 Y71.188 E14.71431
G1 X233.821 Y71.909 E14.77904
G1 X235.233 Y74.023 E14.95544
G1 X235.899 Y75.391 E15.06102
G1 X236.17 Y76.284 E15.12578
G1 X236.637 Y78.631 E15.29183
G1 X236.757 Y79.853 E15.37703
G1 X236.734 Y180.614 E22.3688
G1 X236.17 Y183.716 E22.58758
G1 X235.673 Y185.155 E22.69322
G1 X235.233 Y185.977 E22.75792
G1 X233.821 Y188.091 E22.93432
G1 X232.812 Y189.229 E23.03985
G1 X232.091 Y189.821 E23.10458
G1 X229.977 Y191.233 E23.28098
G1 X229.155 Y191.673 E23.34568
G1 X227.717 Y192.17 E23.45125
G1 X225.369 Y192.637 E23.61737
G1 X224.147 Y192.757 E23.70257
G1 X25.853 Y192.757 E37.46211
G1 X24.631 Y192.637 E37.54731
G1 X22.284 Y192.17 E37.71336
G1 X20.845 Y191.673 E37.819
G1 X20.023 Y191.233 E37.8837
G1 X17.909 Y189.821 E38.0601
G1 X16.771 Y188.812 E38.16563
G1 X16.179 Y188.091 E38.23036
G1 X14.767 Y185.977 E38.40676
G1 X14.327 Y185.155 E38.47146
G1 X13.83 Y183.717 E38.57703
G1 X13.363 Y181.369 E38.74315
G1 X13.243 Y180.147 E38.82835
G1 X13.243 Y79.853 E45.78771
G1 X13.363 Y78.631 E45.87291
G1 X13.83 Y76.283 E46.03903
G1 X14.101 Y75.391 E46.10372
G1 X14.767 Y74.023 E46.2093
G1 X16.179 Y71.909 E46.3857
G1 X17.188 Y70.771 E46.49123
G1 X17.909 Y70.179 E46.55596
G1 X20.023 Y68.767 E46.73236
G1 X20.845 Y68.327 E46.79706
G1 X22.227 Y67.85 E46.89851
G1 X22.227 Y67.85 F3600
G1 X22.398 Y68.405
G1 F1800
G1 X24.745 Y67.938 E47.06456
G1 X25.853 Y67.829 E47.14181
G1 X224.556 Y67.849 E60.92973
G1 X227.602 Y68.405 E61.14458
G1 X228.931 Y68.868 E61.24223
G1 X229.652 Y69.254 E61.29898
G1 X231.765 Y70.666 E61.47532
G1 X232.815 Y71.603 E61.57297
G1 X233.334 Y72.235 E61.62972
G1 X234.746 Y74.348 E61.80606
G1 X235.358 Y75.615 E61.9037
G1 X235.595 Y76.398 E61.96047
G1 X236.062 Y78.745 E62.12652
G1 X236.171 Y79.853 E62.20377
G1 X236.151 Y180.556 E69.19151
G1 X235.595 Y183.602 E69.40636
G1 X235.132 Y184.931 E69.50401
G1 X234.746 Y185.652 E69.56076
G1 X233.334 Y187.765 E69.7371
G1 X232.815 Y188.397 E69.79385
G1 X231.765 Y189.334 E69.8915
G1 X229.652 Y190.746 E70.06784
G1 X228.931 Y191.132 E70.12459
G1 X227.602 Y191.595 E70.22224
G1 X225.255 Y192.062 E70.38829
G1 X224.147 Y192.171 E70.46554
G1 X25.853 Y192.171 E84.22508
G1 X24.746 Y192.062 E84.30227
G1 X22.398 Y191.595 E84.46839
G1 X21.069 Y191.132 E84.56604
G1 X20.348 Y190.746 E84.62279
G1 X18.235 Y189.334 E84.79913
G1 X17.185 Y188.397 E84.89678
G1 X16.666 Y187.765 E84.95353
G1 X15.254 Y185.652 E85.12987
G1 X14.868 Y184.931 E85.18662
G1 X14.405 Y183.602 E85.28427
G1 X13.938 Y181.254 E85.45039
G1 X13.829 Y180.147 E85.52758
G1 X13.829 Y79.853 E92.48694
G1 X13.938 Y78.746 E92.56413
G1 X14.405 Y76.398 E92.73025
G1 X14.642 Y75.615 E92.78702
G1 X15.254 Y74.348 E92.88466
G1 X16.666 Y72.235 E93.061
G1 X17.603 Y71.185 E93.15865
G1 X18.235 Y70.666 E93.2154
G1 X20.348 Y69.254 E93.39174
G1 X21.069 Y68.868 E93.44849
G1 X22.341 Y68.425 E93.54195
G1 X22.341 Y68.425 F3600
G1 X22.512 Y68.979
G1 F1800
G1 X24.86 Y68.512 E93.70807
G1 X25.853 Y68.414 E93.77731
G1 X224.499 Y68.432 E107.56128
G1 X227.488 Y68.979 E107.77213
G1 X228.707 Y69.409 E107.86182
G1 X229.326 Y69.741 E107.91056
G1 X231.44 Y71.153 E108.08696
G1 X232.401 Y72.017 E108.17663
G1 X232.847 Y72.56 E108.22539
G1 X234.259 Y74.673 E108.40173
G1 X234.817 Y75.839 E108.49143
G1 X235.021 Y76.512 E108.54023
G1 X235.488 Y78.86 E108.70635
G1 X235.586 Y79.853 E108.77559
G1 X235.568 Y180.499 E115.75938
G1 X235.021 Y183.488 E115.97023
G1 X234.591 Y184.707 E116.05992
G1 X234.259 Y185.327 E116.10872
G1 X232.847 Y187.44 E116.28506
G1 X232.401 Y187.983 E116.33382
G1 X231.44 Y188.847 E116.42349
G1 X229.327 Y190.259 E116.59983
G1 X228.707 Y190.591 E116.64863
G1 X227.488 Y191.021 E116.73832
G1 X225.14 Y191.488 E116.90444
G1 X224.147 Y191.586 E116.97368
G1 X25.853 Y191.586 E130.73322
G1 X24.86 Y191.488 E130.80246
G1 X22.512 Y191.021 E130.96858
G1 X21.293 Y190.591 E131.05827
G1 X20.674 Y190.259 E131.10701
G1 X18.56 Y188.847 E131.28341
G1 X18.017 Y188.401 E131.33217
G1 X17.153 Y187.44 E131.42184
G1 X15.741 Y185.327 E131.59818
G1 X15.409 Y184.707 E131.64698
G1 X14.979 Y183.488 E131.73667
G1 X14.512 Y181.14 E131.90279
G1 X14.414 Y180.147 E131.97203
G1 X14.414 Y79.853 E138.93139
G1 X14.512 Y78.86 E139.00063
G1 X14.979 Y76.512 E139.16675
G1 X15.183 Y75.839 E139.21555
G1 X15.741 Y74.674 E139.30518
G1 X17.153 Y72.56 E139.48158
G1 X18.017 Y71.599 E139.57125
G1 X18.56 Y71.153 E139.62001
G1 X20.673 Y69.741 E139.79635
G1 X21.293 Y69.409 E139.84515
G1 X22.455 Y68.999 E139.93065
G1 X22.455 Y68.999 F3600
G1 X23.447 Y72.821
G1 F1800
G1 X25.887 Y72.365 E140.10289
G1 X224.171 Y72.376 E153.86174
G1 X226.551 Y72.82 E154.02974
G1 X227.017 Y72.984 E154.06402
G1 X229.108 Y74.345 E154.23714
G1 X229.473 Y74.673 E154.27119
G1 X230.883 Y76.731 E154.4443
G1 X231.095 Y77.175 E154.47844
G1 X231.635 Y79.886 E154.67025
G1 X231.635 Y180.113 E161.62496
G1 X231.178 Y182.559 E161.79762
G1 X230.891 Y183.258 E161.85005
G1 X229.651 Y185.113 E162.00488
G1 X229.326 Y185.473 E162.03853
G1 X227.204 Y186.92 E162.21675
G1 X226.553 Y187.179 E162.26537
G1 X224.113 Y187.635 E162.43761
G1 X25.887 Y187.635 E176.19243
G1 X23.44 Y187.178 E176.36516
G1 X22.742 Y186.891 E176.41753
G1 X20.887 Y185.651 E176.57236
G1 X20.527 Y185.326 E176.60601
G1 X19.08 Y183.204 E176.78423
G1 X18.821 Y182.553 E176.83285
G1 X18.365 Y180.113 E177.00509
G1 X18.365 Y79.887 E183.95973
G1 X18.822 Y77.441 E184.13239
G1 X19.109 Y76.742 E184.18482
G1 X20.349 Y74.887 E184.33965
G1 X20.674 Y74.527 E184.3733
G1 X22.796 Y73.08 E184.55152
G1 X23.391 Y72.843 E184.59596
G1 X23.391 Y72.843 F3600
G1 X23.583 Y73.391
G1 F1800
G1 X25.915 Y72.95 E184.76064
G1 X224.143 Y72.962 E198.5156
G1 X226.419 Y73.391 E198.67631
G1 X226.785 Y73.523 E198.70331
G1 X228.766 Y74.822 E198.86769
G1 X229.052 Y75.082 E198.89451
G1 X230.385 Y77.04 E199.05887
G1 X230.55 Y77.39 E199.08572
G1 X231.05 Y79.915 E199.26433
G1 X231.05 Y180.085 E206.21509
G1 X230.608 Y182.421 E206.38006
G1 X230.388 Y182.956 E206.4202
G1 X228.918 Y185.052 E206.59784
G1 X226.903 Y186.417 E206.76672
G1 X226.417 Y186.609 E206.80298
G1 X224.085 Y187.05 E206.96766
G1 X25.915 Y187.05 E220.7186
G1 X23.579 Y186.608 E220.88357
G1 X23.044 Y186.388 E220.92371
G1 X20.948 Y184.918 E221.10135
G1 X19.583 Y182.903 E221.27023
G1 X19.391 Y182.417 E221.30649
G1 X18.95 Y180.085 E221.47117
G1 X18.95 Y79.915 E228.42193
G1 X19.392 Y77.579 E228.5869
G1 X19.612 Y77.044 E228.62704
G1 X21.082 Y74.948 E228.80468
G1 X23.097 Y73.583 E228.97356
G1 X23.527 Y73.413 E229.00564
G1 X23.527 Y73.413 F3600
G1 X23.719 Y73.961
G1 F1800
G1 X25.943 Y73.536 E229.16275
G1 X224.115 Y73.547 E242.91383
G1 X226.549 Y74.06 E243.08643
G1 X228.628 Y75.487 E243.2614
G1 X230.003 Y77.602 E243.43645
G1 X230.464 Y79.943 E243.60201
G1 X230.464 Y180.057 E250.54888
G1 X230.039 Y182.282 E250.70606
G1 X229.885 Y182.655 E250.73406
G1 X228.513 Y184.628 E250.90081
G1 X226.603 Y185.912 E251.06051
G1 X226.281 Y186.039 E251.08453
G1 X224.057 Y186.464 E251.24164
G1 X25.943 Y186.464 E264.98869
G1 X23.718 Y186.039 E265.14587
G1 X23.345 Y185.885 E265.17387
G1 X21.372 Y184.513 E265.34062
G1 X20.087 Y182.603 E265.50036
G1 X19.961 Y182.281 E265.52435
G1 X19.536 Y180.057 E265.68146
G1 X19.536 Y79.943 E272.62833
G1 X19.961 Y77.718 E272.78551
G1 X20.115 Y77.345 E272.81351
G1 X21.487 Y75.372 E272.98026
G1 X23.397 Y74.088 E273.13996
G1 X23.664 Y73.983 E273.15987
G1 X23.664 Y73.983 F3600
G1 X23.786 Y74.574
G1 F1800
G1 X25.971 Y74.122 E273.3147
G1 X224.087 Y74.133 E287.06189
G1 X226.306 Y74.593 E287.21914
G1 X228.2 Y75.887 E287.37831
G1 X229.384 Y77.65 E287.52567
G1 X229.878 Y79.971 E287.69033
G1 X229.878 Y180.029 E294.63331
G1 X229.382 Y182.354 E294.79827
G1 X228.113 Y184.199 E294.95365
G1 X226.306 Y185.407 E295.10447
G1 X224.029 Y185.878 E295.26581
G1 X25.971 Y185.878 E309.00898
G1 X23.646 Y185.382 E309.17394
G1 X21.801 Y184.113 E309.32932
G1 X20.593 Y182.306 E309.48014
G1 X20.122 Y180.029 E309.64148
G1 X20.122 Y79.971 E316.58446
G1 X20.618 Y77.646 E316.74942
G1 X21.887 Y75.801 E316.9048
G1 X23.694 Y74.593 E317.05562
G1 X23.727 Y74.586 E317.05796
G1 X23.727 Y74.586 F3600
G1 X23.948 Y75.121
G1 F1800
G1 X26 Y74.707 E317.20322
G1 X224.058 Y74.719 E330.94639
G1 X226.052 Y75.121 E331.08754
G1 X227.763 Y76.278 E331.23086
G1 X228.901 Y78.001 E331.37414
G1 X229.293 Y80 E331.51549
G1 X229.293 Y180 E338.45445
G1 X228.879 Y182.052 E338.59971
G1 X227.722 Y183.763 E338.74303
G1 X226.052 Y184.879 E338.8824
G1 X224 Y185.293 E339.02766
G1 X26 Y185.293 E352.7668
G1 X23.948 Y184.879 E352.91206
G1 X22.278 Y183.763 E353.05143
G1 X21.121 Y182.052 E353.19475
G1 X20.707 Y180 E353.34001
G1 X20.707 Y80 E360.27897
G1 X21.121 Y77.948 E360.42423
G1 X22.237 Y76.278 E360.5636
G1 X23.898 Y75.155 E360.70273
G1 E356.70273 F2400
G92 E0
G1 X23.898 Y75.155 F3600
G1 X32.635 Y165.135
G1 E4 F2400
G1 F1800
G1 X85.1 Y165.135 E7.64053
G1 X85.365 Y165.135 E7.65892
G1 X85.365 Y174.865 E8.33408
G1 X32.635 Y174.865 E11.99299
G1 X32.635 Y165.195 E12.66399
G1 X32.635 Y165.195 F3600
G1 X32.05 Y165.195
G1 F1800
G1 X32.05 Y164.55 E12.70875
G1 X85.95 Y164.55 E16.44885
G1 X85.95 Y175.45 E17.2052
G1 X32.05 Y175.45 E20.9453
G1 X32.05 Y165.255 E21.65273
G1 X32.05 Y165.255 F3600
G1 X31.464 Y165.255
G1 F1800
G1 X31.464 Y163.964 E21.74231
G1 X85.1 Y163.964 E25.46409
G1 X86.536 Y163.964 E25.56373
G1 X86.536 Y176.036 E26.4014
G1 X31.464 Y176.036 E30.22282
G1 X31.464 Y165.315 E30.96675
G1 X31.464 Y165.315 F3600
G1 X30.878 Y165.315
G1 F1800
G1 X30.878 Y163.378 E31.10116
G1 X87.122 Y163.378 E35.00391
G1 X87.122 Y176.622 E35.92291
G1 X30.878 Y176.622 E39.82566
G1 X30.878 Y165.375 E40.60608
G1 X30.878 Y165.375 F3600
G1 X30.293 Y165.375
G1 F1800
G1 X30.293 Y162.793 E40.78524
G1 X85.1 Y162.793 E44.58828
G1 X87.707 Y162.793 E44.76918
G1 X87.707 Y177.207 E45.76936
G1 X30.293 Y177.207 E49.75329
G1 X30.293 Y165.435 E50.57014
G1 E46.57014 F2400
G92 E0
G1 X30.293 Y165.435 F3600
G1 X32.635 Y154.865
G1 E4 F2400
G1 F1800
G1 X32.635 Y145.135 E4.67516
G1 X85.365 Y145.135 E8.33407
G1 X85.365 Y154.865 E9.00923
G1 X32.695 Y154.865 E12.66398
G1 X32.695 Y154.865 F3600
G1 X32.695 Y155.45
G1 F1800
G1 X32.05 Y155.45 E12.70874
G1 X32.05 Y144.55 E13.46509
G1 X85.95 Y144.55 E17.20519
G1 X85.95 Y155.45 E17.96154
G1 X32.755 Y155.45 E21.65272
G1 X32.755 Y155.45 F3600
G1 X32.755 Y156.036
G1 F1800
G1 X31.464 Y156.036 E21.7423
G1 X31.464 Y143.964 E22.57997
G1 X86.536 Y143.964 E26.40139
G1 X86.536 Y156.036 E27.23906
G1 X32.815 Y156.036 E30.96674
G1 X32.815 Y156.036 F3600
G1 X32.815 Y156.622
G1 F1800
G1 X30.878 Y156.622 E31.10115
G1 X30.878 Y143.378 E32.02015
G1 X87.122 Y143.378 E35.9229
G1 X87.122 Y156.622 E36.8419
G1 X32.875 Y156.622 E40.60608
G1 X32.875 Y156.622 F3600
G1 X32.875 Y157.207
G1 F1800
G1 X30.293 Y157.207 E40.78524
G1 X30.293 Y142.793 E41.78542
G1 X87.707 Y142.793 E45.76935
G1 X87.707 Y157.207 E46.76953
G1 X32.935 Y157.207 E50.57014
G1 E46.57014 F2400
G92 E0
G1 X32.935 Y157.207 F3600
G1 X32.935 Y134.865
G1 E4 F2400
G1 F1800
G1 X32.635 Y134.865 E4.02082
G1 X32.635 Y125.135 E4.69598
G1 X85.365 Y125.135 E8.35489
G1 X85.365 Y134.865 E9.03005
G1 X32.995 Y134.865 E12.66398
G1 X32.995 Y134.865 F3600
G1 X32.995 Y135.45
G1 F1800
G1 X32.05 Y135.45 E12.72955
G1 X32.05 Y124.55 E13.4859
G1 X85.95 Y124.55 E17.226
G1 X85.95 Y135.45 E17.98235
G1 X33.055 Y135.45 E21.65271
G1 X33.055 Y135.45 F3600
G1 X33.055 Y136.036
G1 F1800
G1 X31.464 Y136.036 E21.76311
G1 X31.464 Y123.964 E22.60078
G1 X86.536 Y123.964 E26.4222
G1 X86.536 Y136.036 E27.25987
G1 X33.115 Y136.036 E30.96673
G1 X33.115 Y136.036 F3600
G1 X33.115 Y136.622
G1 F1800
G1 X30.878 Y136.622 E31.12195
G1 X30.878 Y123.378 E32.04095
G1 X87.122 Y123.378 E35.9437
G1 X87.122 Y136.622 E36.8627
G1 X33.175 Y136.622 E40.60606
G1 X33.175 Y136.622 F3600
G1 X33.175 Y137.207
G1 F1800
G1 X30.293 Y137.207 E40.80604
G1 X30.293 Y122.793 E41.80622
G1 X87.707 Y122.793 E45.79015
G1 X87.707 Y137.207 E46.79033
G1 X33.235 Y137.207 E50.57012
G1 E46.57012 F2400
G92 E0
G1 X33.235 Y137.207 F3600
G1 X33.235 Y114.865
G1 E4 F2400
G1 F1800
G1 X32.635 Y114.865 E4.04163
G1 X32.635 Y105.135 E4.71679
G1 X85.365 Y105.135 E8.3757
G1 X85.365 Y114.865 E9.05086
G1 X33.295 Y114.865 E12.66398
G1 X33.295 Y114.865 F3600
G1 X33.295 Y115.45
G1 F1800
G1 X32.05 Y115.45 E12.75037
G1 X32.05 Y104.55 E13.50672
G1 X85.95 Y104.55 E17.24682
G1 X85.95 Y115.45 E18.00317
G1 X33.355 Y115.45 E21.65272
G1 X33.355 Y115.45 F3600
G1 X33.355 Y116.036
G1 F1800
G1 X31.464 Y116.036 E21.78394
G1 X31.464 Y103.964 E22.62161
G1 X86.536 Y103.964 E26.44303
G1 X86.536 Y116.036 E27.2807
G1 X33.415 Y116.036 E30.96674
G1 X33.415 Y116.036 F3600
G1 X33.415 Y116.622
G1 F1800
G1 X30.878 Y116.622 E31.14278
G1 X30.878 Y103.378 E32.06178
G1 X87.122 Y103.378 E35.96453
G1 X87.122 Y116.622 E36.88353
G1 X33.475 Y116.622 E40.60607
G1 X33.475 Y116.622 F3600
G1 X33.475 Y117.207
G1 F1800
G1 X30.293 Y117.207 E40.82687
G1 X30.293 Y102.793 E41.82705
G1 X87.707 Y102.793 E45.81098
G1 X87.707 Y117.207 E46.81116
G1 X33.535 Y117.207 E50.57013
G1 E46.57013 F2400
G92 E0
G1 X33.535 Y117.207 F3600
G1 X33.535 Y94.865
G1 E4 F2400
G1 F1800
G1 X32.635 Y94.865 E4.06245
G1 X32.635 Y85.135 E4.73761
G1 X85.365 Y85.135 E8.39652
G1 X85.365 Y94.865 E9.07168
G1 X33.595 Y94.865 E12.66398
G1 X33.595 Y94.865 F3600
G1 X33.595 Y95.45
G1 F1800
G1 X32.05 Y95.45 E12.77119
G1 X32.05 Y84.55 E13.52754
G1 X85.95 Y84.55 E17.26764
G1 X85.95 Y95.45 E18.02399
G1 X33.655 Y95.45 E21.65272
G1 X33.655 Y95.45 F3600
G1 X33.655 Y96.036
G1 F1800
G1 X31.464 Y96.036 E21.80475
G1 X31.464 Y83.964 E22.64242
G1 X86.536 Y83.964 E26.46384
G1 X86.536 Y96.036 E27.30151
G1 X33.715 Y96.036 E30.96674
G1 X33.715 Y96.036 F3600
G1 X33.715 Y96.622
G1 F1800
G1 X30.878 Y96.622 E31.1636
G1 X30.878 Y83.378 E32.0826
G1 X87.122 Y83.378 E35.98535
G1 X87.122 Y96.622 E36.90435
G1 X33.775 Y96.622 E40.60608
G1 X33.775 Y96.622 F3600
G1 X33.775 Y97.207
G1 F1800
G1 X30.293 Y97.207 E40.84769
G1 X30.293 Y82.793 E41.84787
G1 X87.707 Y82.793 E45.8318
G1 X87.707 Y97.207 E46.83198
G1 X33.835 Y97.207 E50.57014
G1 E46.57014 F2400
G92 E0
G1 X33.835 Y97.207 F3600
G1 X98.635 Y94.865
G1 E4 F2400
G1 F1800
G1 X98.635 Y85.135 E4.67516
G1 X151.365 Y85.135 E8.33407
G1 X151.365 Y94.865 E9.00923
G1 X98.695 Y94.865 E12.66398
G1 X98.695 Y94.865 F3600
G1 X98.695 Y95.45
G1 F1800
G1 X98.05 Y95.45 E12.70874
G1 X98.05 Y84.55 E13.46509
G1 X151.95 Y84.55 E17.20519
G1 X151.95 Y95.45 E17.96154
G1 X98.755 Y95.45 E21.65272
G1 X98.755 Y95.45 F3600
G1 X98.755 Y96.036
G1 F1800
G1 X97.464 Y96.036 E21.7423
G1 X97.464 Y83.964 E22.57997
G1 X152.536 Y83.964 E26.40139
G1 X152.536 Y96.036 E27.23906
G1 X98.815 Y96.036 E30.96674
G1 X98.815 Y96.036 F3600
G1 X98.815 Y96.622
G1 F1800
G1 X96.878 Y96.622 E31.10115
G1 X96.878 Y83.378 E32.02015
G1 X153.122 Y83.378 E35.9229
G1 X153.122 Y96.622 E36.8419
G1 X98.875 Y96.622 E40.60608
G1 X98.875 Y96.622 F3600
G1 X98.875 Y97.207
G1 F1800
G1 X96.293 Y97.207 E40.78524
G1 X96.293 Y82.793 E41.78542
G1 X153.707 Y82.793 E45.76935
G1 X153.707 Y97.207 E46.76953
G1 X98.935 Y97.207 E50.57014
G1 E46.57014 F2400
G92 E0
G1 X98.935 Y97.207 F3600
G1 X98.935 Y105.135
G1 E4 F2400
G1 F1800
G1 X151.365 Y105.135 E7.6381
G1 X151.365 Y114.865 E8.31326
G1 X98.635 Y114.865 E11.97217
G1 X98.635 Y105.135 E12.64733
